!!!!SEGMENT: Distler_Jahrkreis_18_Mit-Freuden-zart.krn
!!!COM: Distler, Hugo
!!!CDT: 1908-1942
!!!OPR@@DE: Der Jahrkreis
!!!OPR@EN: The Year Cycle
!!!OTL@@DE: Mit Freuden zart
!!!OTL@EN: With high delight
!!!OPS: 5
!!!ONM: 18
!!!RNB: Verse 4 (two-part texture) not encoded.
**kern	**text	**kern	**text	**kern	**text
*part3	*part3	*part2	*part2	*part1	*part1
*staff3	*staff3	*staff2	*staff2	*staff1	*staff1
*Ialto	*	*Isoprn	*	*Isoprn	*
*clefG2	*	*clefG2	*	*clefG2	*
*k[f#c#g#d#]	*	*k[f#c#g#d#]	*	*k[f#c#g#d#]	*
*M4/4	*	*M4/4	*	*M4/4	*
*MM120	*	*MM120	*	*MM120	*
=1	=1	=1	=1	=1	=1
1r	.	1r	.	4r	.
.	.	.	.	4e	Mit
.	.	.	.	4g#	Freu-
.	.	.	.	4a	den
=2	=2	=2	=2	=2	=2
1r	.	4B	Mit	2b,	zart
.	.	(4.B	Freu-	.	.
.	.	.	.	4ee	zu
.	.	8c#L	.	.	.
.	.	8d#	.	([4dd#	die-
.	.	8eJ)	.	.	.
=3	=3	=3	=3	=3	=3
4r	.	4f#	den	8dd#L]	.
.	.	.	.	8cc#J	.
4B	Mit	2g#,	zart	4b	.
(8AL	Freu-	.	.	4cc#)	.
8BJ)	.	.	.	.	.
(8c#L	den	4a	zu	4cc#	ser
8d#J)	.	.	.	.	.
!!LO:LB:g=original
=4	=4	=4	=4	=4	=4
4.e,	zart	4g#	die-	4b,	Fahrt
.	.	4f#	ser	4.cc#	lasst
8d#	zu	.	.	.	.
4c#	die-	4e,	Fahrt	.	.
.	.	.	.	8b	uns
4c#	ser	[4f#	lasst	4a	zu-
=5	=5	=5	=5	=5	=5
8B,	Fahrt	8f#]	.	4g#	gleich
8B	lasst	8e	uns	.	.
8B	uns	4dn	zu-	(4.f#	froeh-
8B	zu-	.	.	.	.
4A	gleich	4c#	gleich	.	.
.	.	.	.	8g#)	.
8G#	froeh-	4c#	froeh-	4a	lich
8A	lich	.	.	.	.
=6	=6	=6	=6	=6	=6
2B	sin-	4e	lich	2f#	sin-
.	.	4d#	sin-	.	.
2e	gen	2e	gen,	2e	gen,
=7:|!	=7	=7:|!	=7	=7:|!	=7
1r	.	4e	Das	2ee	Das
.	.	(4.g#	e-	.	.
.	.	.	.	4dd#	e-
.	.	8f#)	.	.	.
.	.	4e	wig'	4cc#	wig'
!!LO:LB:g=original
=8	=8	=8	=8	=8	=8
1r	.	4d#,	Heil	4b,	Heil
.	.	4c#	wird	4ee	wird
.	.	4f#	uns	(4.dd#	uns
.	.	4g#	zu-	.	.
.	.	.	.	8ee	.
=9	=9	=9	=9	=9	=9
2r	.	4a#,	teil;	4ff#	.
.	.	4b	denn	4dd#)	.
4r	.	(4e	Je-	2cc#	zu-
4f#	___Denn	4f#)	.	.	.
=10	=10	=10	=10	=10	=10
2B	Je-	4g#	sus	4.b,	teil;
.	.	(4.an	Christ	.	.
.	.	.	.	8b	denn
2c#	sus	.	.	4e	Je-
.	.	8g#L	.	.	.
.	.	8f#	.	4f#	sus
.	.	8eJ	.	.	.
=11	=11	=11	=11	=11	=11
8B,	Christ	4d#),	.	4g#,	Christ
8B	er-	.	.	.	.
(4.b	stan-	4e	er-	4f#	er-
.	.	8c#	stan-	(8g#L	stan-
8a#)	.	8c#	den	8a#J	.
(8g#L	den	4B,	ist,	[4b	.
8f#J)	.	.	.	.	.
!!LO:LB:g=original
=12	=12	=12	=12	=12	=12
4e,	ist,	4f#	was	8b])	.
.	.	.	.	8b	den
(4.d#	was	4f#	er	2b,	ist,
.	.	(8g#L	laesst	.	.
8c#)	.	8f#	.	.	.
4B	er	8e	.	4b	was
.	.	8d#J)	.	.	.
=13	=13	=13	=13	=13	=13
*M6/4	*	*M6/4	*	*M6/4	*
4e	laesst	4.c#	reich-	4cc#	er
(4.e	reich-	.	.	4an	laesst
.	.	8c#	lich	.	.
.	.	4d#	ver-	2f#	reich-
8d#L	.	.	.	.	.
8c#	.	(4.e	kuen-	.	.
8BJ)	.	.	.	.	.
4A	lich	.	.	4g#	lich
.	.	8d#	.	.	.
4c#	ver-	[4c#	.	4a	ver-
=14	=14	=14	=14	=14	=14
*M4/4	*	*M4/4	*	*M4/4	*
2B	kuen-	4c#]	.	2f#	kuen-
.	.	4d#)	.	.	.
2e	den.	2e	den.	2e	den.
==	==	==	==	==	==
*-	*-	*-	*-	*-	*-
!!!YOR: Bärenreiter-Ausgabe 676
!!!YOY: 1933
!!!EFL: 18/52
!!!URL-github: https://github.com/LucasHofmann/distler/blob/main/Jahrkreis/Distler_Jahrkreis_18_Mit-Freuden-zart.krn
!!!URL-pdf: https://imslp.eu/files/imglnks/euimg/7/7d/IMSLP834545-PMLP518834-5-jahrkreis-EA--original-paper-600dpi.pdf#page=36 First edition, Kassel: Bärenreiter, 1933. Plate BA 676.
!!!URL-imslp: https://imslp.org/wiki/Der_Jahrkreis,_Op.5_(Distler,_Hugo)#IMSLP834545
!!!system-decoration: [(s1,s2,s3)]
!!!ENC: Lucas Hofmann
!!!END: 2023/10/27
!!!title: @{OPR@@DE}, Op. @{OPS}, Nr. @{ONM}. <i>@{OTL@@DE}</i>
